X:1
T:Christmas Chimes
T:Christmas Chimes
T:Reverie
T:F. W. VANDERSLOOT
T: Price 60₵ 
T:Copyright 1915 by Vandersloot Music Pub. Co.
T:Copyright 1915 by Vandersloot Music Pub. Co.
T:Copyright 1915 by Vandersloot Music Pub. Co.
T:Copyright 1915 by Vandersloot Music Pub. Co.
C:F. W. VANDERSLOOT
Z:Copyright 1915 by Vandersloot Music Pub. Co.
%%score { ( 1 3 ) | 2 }
L:1/8
Q:1/4=140
M:4/4
K:F
V:1 treble nm="Piano" snm="Pno."
V:3 treble 
V:2 treble 
V:1
"^Very Slow\nChimes imitation\n"!ff!!8va(! [c''f'']4 [b'e'']2 [a'd'']2 | %1
 [g'c'']6"^Also published\nin Vocal form\n" [f'b']2 | [e'a']4 [d'g']4 | [c'f']6 [g'c'']2 | %4
 [a'd'']6 [a'd'']2 |"^Composer of""^{" [b'e'']6 [b'e'']2 | %6
"^I Wonder How The Old Folks Are\nAt Home  etc.   etc.\n" [c''f'']8- | [c''f'']6 [c''f'']2 | %8
 [c''f'']2 [b'e'']2 [a'd'']2 [g'c'']2 | [g'c'']3 [f'b'] [e'a']2 [c''f'']2 | %10
 [c''f'']2 [b'e'']2 [a'd'']2 [g'c'']2 | [g'c'']3 [f'b'] [e'a']2 [e'a']2 | %12
 [e'a']2 [e'a']2 [e'a']2 [e'a'][f'b'] | [g'c'']6 [f'b'][e'a'] | %14
 [d'g']2 [d'g']2 [d'g']2 [d'g'][e'a'] | [f'b']6 [e'a'][d'g'] | [c'f']2 [c''f'']4 [a'd'']2 | %17
 [g'c'']3 [f'b'] [e'a']2 [f'b']2 | [e'a']4 [d'g']4 | [c'f']8!8va)! || %20
!p![Q:1/4=140]"^Andante" !arpeggio![Aca]3 !arpeggio![^G=B^g] !arpeggio![Aca]3 !arpeggio![=G_B=g] | %21
 !arpeggio![FAf]2 !arpeggio![Aca]4 !arpeggio![Aca]2 | %22
 !arpeggio![Bdb]2 !arpeggio![DBd]2 !arpeggio![FBf] !arpeggio![Bdb]3 | %23
 !arpeggio![Aca]6 !arpeggio![Aca]2 | %24
 !arpeggio![cec']3 !arpeggio![Bdb] !arpeggio![GBg]2 !arpeggio![Bdb]2 | %25
 !arpeggio![Aca]3 !arpeggio![GBg] !arpeggio![FAf]2 !arpeggio![Aca]2 | %26
 !arpeggio![G=Bg]2 !arpeggio![faf']2 !arpeggio![ege']2 !arpeggio![dfd']2 | %27
 !arpeggio![cec']4 !arpeggio![Beb]4 | %28
 !arpeggio![Aca]3 !arpeggio![^G=B^g] !arpeggio![Aca]3 !arpeggio![=G_B=g] | %29
 !arpeggio![FAf]2 !arpeggio![Aca]4 !arpeggio![Aca]2 | %30
 !arpeggio![Bdb]2 !arpeggio![DBd]2 !arpeggio![FBf] !arpeggio![Bdb]3 | %31
 !arpeggio![Aca]6 !arpeggio![Aca]2 | %32
 !arpeggio![cfc']3 !arpeggio![cfc'] !arpeggio![B^fb]2 !arpeggio![Afa]2 | %33
 !arpeggio![Ada]2 !arpeggio![G=Bg]4 !arpeggio![FBf]!arpeggio![GBg] | %34
 !arpeggio![Aca]2 !arpeggio![cfc']2 !arpeggio![Aca] !arpeggio![G_Bg]3 | !arpeggio![FAf]6 z2 |: %36
!mf! !arpeggio![cec']2 !arpeggio![GBg]!arpeggio![Aca] !arpeggio![Bdb]2 !arpeggio![GBg]2 | %37
 !arpeggio![Aca]2 !arpeggio![cfc']4 !arpeggio![cfc']2 | %38
 !arpeggio![cec']2 !arpeggio![GBg]!arpeggio![Aca] !arpeggio![Bdb]2 !arpeggio![cec']2 | %39
 !arpeggio![Aca]6 !arpeggio![Aca]2 | %40
 !arpeggio![cfc']3 !arpeggio![cfc'] !arpeggio![B^fb]2 !arpeggio![Afa]2 | %41
 !arpeggio![Ada]2 !arpeggio![G=Bg]4 !arpeggio![FBf]!arpeggio![GBg] | %42
 !arpeggio![Aca]2 !arpeggio![cfc']2 !arpeggio![Aca] !arpeggio![G_Bg]3 | !arpeggio![FAf]6 z2 :: %44
[K:C][M:3/4]!f![Q:1/4=120]"^Lentamente" [A^ca]>[Acg] [Ace]2 [Acg]2 | [Adf]>[Ae] [Ad]3 [Af] | %46
 [^Ge]>[Gd] [GB]2 [Gd]2 | [Ac]>B A4 | [FA]>[FB] [Ac]2 A2 | [EG]>c [Ge]4 | %50
 [^Fce]>[Fcd] [Fc]2 [FA]2 | d6 | [A^ca]>[Acg] [Ace]2 [Acg]2 | [Adf]>[Ae] [Ad]3 [Af] | %54
 [^Ge]>[Gd] [GB]2 [Gd]2 | [Ac]>B A4 | [FA]>[FB] [Ac]2 A2 | [EG]>c [Ge]4 | %58
 [^Fce]>[Fc] [=FBe]2 [FBd]2 |1 ([EGc]g agag) :|2 %60
[Q:1/4=110] [EGc]2[Q:1/4=100] [DFB]2 !fermata![CG_B]2 || %61
[K:F][M:4/4]!p![Q:1/4=140] !arpeggio![Aca]3 !arpeggio![^G=B^g] !arpeggio![Aca]3 !arpeggio![=G_B=g] | %62
 !arpeggio![FAf]2 !arpeggio![Aca]4 !arpeggio![Aca]2 | %63
 !arpeggio![Bdb]2 !arpeggio![DBd]2 !arpeggio![FBf] !arpeggio![Bdb]3 | %64
 !arpeggio![Aca]6 !arpeggio![Aca]2 | %65
 !arpeggio![cec']3 !arpeggio![Bdb] !arpeggio![GBg]2 !arpeggio![Bdb]2 | %66
 !arpeggio![Aca]3 !arpeggio![GBg] !arpeggio![FAf]2 !arpeggio![Aca]2 | %67
 !arpeggio![G=Bg]2 !arpeggio![faf']2 !arpeggio![ege']2 !arpeggio![dfd']2 | %68
 !arpeggio![cec']4 !arpeggio![Beb]4 | %69
 !arpeggio![Aca]3 !arpeggio![^G=B^g] !arpeggio![Aca]3 !arpeggio![=G_B=g] | %70
 !arpeggio![FAf]2 !arpeggio![Aca]4 !arpeggio![Aca]2 | %71
 !arpeggio![Bdb]2 !arpeggio![DBd]2 !arpeggio![FBf] !arpeggio![Bdb]3 | %72
 !arpeggio![Aca]6 !arpeggio![Aca]2 | %73
 !arpeggio![cfc']3 !arpeggio![cfc'] !arpeggio![B^fb]2 !arpeggio![Afa]2 | %74
 !arpeggio![Ada]2 !arpeggio![G=Bg]4 !arpeggio![FBf]!arpeggio![GBg] | %75
 !arpeggio![Aca]2 !arpeggio![cfc']2 !arpeggio![Aca] !arpeggio![G_Bg]3 | !arpeggio![FAf]6 || %77
[K:Bb][Q:1/4=140]"^Chimes\nSlowly\n"!8va(! [f'b']2 | [f'b']8 | [c'f']4 [f'b']4 | [g'c'']6 [e'a']2 | %81
 [c'f']8 | [a'd'']4 [g'c'']4 | [a'd'']4 [b'e'']4 | [a'd'']8 | [g'c'']8 | [f'b']8 | %87
 [e'a']4 [d'g']4 | [e'a']4 [f'b']4 | [g'c'']4 [b'e'']4 | [a'd'']8 | [g'c'']6 [f'b']2 | [f'b']8- | %93
 [f'b']4!8va)! z4 |: %94
!p!"^a tempo"[Q:1/4=80] [Bd]/[Bd]/[Bd]/[Bd]/ [Bd]/[Bd]/[Bd]/[Bd]/ [ce]/[ce]/[ce]/[ce]/ [^c=e]/[ce]/[ce]/[ce]/ | %95
 [df]/[df]/[df]/[df]/ [df]/[df]/[df]/[df]/ [db]/[db]/[db]/[db]/ [db]/[db]/[db]/[db]/ | %96
 [eg]/[eg]/[eg]/[eg]/ [eg]/[eg]/[eg]/[eg]/ [eb]/[eb]/[eb]/[eb]/ [eg]/[eg]/[eg]/[eg]/ | %97
 [df]/[df]/[df]/[df]/ [df]/[df]/[df]/[df]/ [df]/[df]/[df]/[df]/ [df]/[df]/[df]/[df]/ | %98
 [Bd]/[Bd]/[Bd]/[Bd]/ [Bd]/[Bd]/[Bd]/[Bd]/ [ce]/[ce]/[ce]/[ce]/ [^c=e]/[ce]/[ce]/[ce]/ | %99
 [df]/[df]/[df]/[df]/ [df]/[df]/[df]/[df]/ [db]/[db]/[db]/[db]/ [db]/[db]/[db]/[db]/ | %100
 [=eg]/[eg]/[eg]/[eg]/ [eg]/[eg]/[eg]/[eg]/ [eb]/[eb]/[eb]/[eb]/ [eg]/[eg]/[eg]/[eg]/ | %101
 [_ec']/[ec']/[ec']/[ec']/ [ec']/[ec']/[ec']/[ec']/ [ec']/[ec']/[ec']/[ec']/ [ec']/[ec']/[ec']/[ec']/ | %102
 [Bd]/[Bd]/[Bd]/[Bd]/ [Bd]/[Bd]/[Bd]/[Bd]/ [ce]/[ce]/[ce]/[ce]/ [^c=e]/[ce]/[ce]/[ce]/ | %103
 [df]/[df]/[df]/[df]/ [df]/[df]/[df]/[df]/ [db]/[db]/[db]/[db]/ [db]/[db]/[db]/[db]/ | %104
 [eg]/[eg]/[eg]/[eg]/ [eg]/[eg]/[eg]/[eg]/ [eb]/[eb]/[eb]/[eb]/ [eg]/[eg]/[eg]/[eg]/ | %105
 [df]/[df]/[df]/[df]/ [df]/[df]/[df]/[df]/ [df]/[df]/[df]/[df]/ [df]/[df]/[df]/[df]/ | %106
 [eg]/[eg]/[eg]/[eg]/ [eg]/[eg]/[eg]/[eg]/ [eb]/[eb]/[eb]/[eb]/ [eg]/[eg]/[eg]/[eg]/ | %107
 [df]/[df]/[df]/[df]/ [df]/[df]/[df]/[df]/ [Bd]/[Bd]/[Bd]/[Bd]/ [Bd]/[Bd]/[Bd]/[Bd]/ | %108
[Q:1/4=78] [Af]/[Af]/[Af]/[Af]/ [Ge]/[Ge]/[Ge]/[Ge]/[Q:1/4=76] [Fd]/[Fd]/[Fd]/[Fd]/ [Ec]/[Ec]/[Ec]/[Ec]/ | %109
[Q:1/4=73] [DB]/[DB]/[DB]/[DB]/ [DB]/[DB]/[DB]/[DB]/[Q:1/4=70] [DB]2 z2 :| %110
!ff![Q:1/4=100]!8va(! [f'b']4 [c'g']4 | [e'a']4 [c'f']4 | [f'b']4 [d'g']4 | [e'a']4 [c'f']4 | %114
 [f'b']4 [e'a']2 [d'g']2 | [c'f']6 [be']2 | [ad']4 [gc']4 | [fb]8!8va)! ||!ff! [_D_GB]8 | %119
!pp! [=DFB]4 z4 |] %120
V:2
!8va(!!ped! [af']4 [ge']2 [fd']2 | [ec']6 [db]2 | [ca]4 [Bg]4 | [Af]6 [ec']2 | [fd']6 [fd']2 | %5
 [ge']6 [ge']2 | [af']8- | [af']6 [af']2 | [af']2 [ge']2 [fd']2 [ec']2 | [ec']3 [db] [ca]2 [af']2 | %10
 [af']2 [ge']2 [fd']2 [ec']2 | [ec']3 [db] [ca]2 [ca]2 | [ca]2 [ca]2 [ca]2 [ca][db] | %13
 [ec']6 [db][ca] | [Bg]2 [Bg]2 [Bg]2 [Bg][ca] | [db]6 [ca][Bg] | [Af]2 [af']4 [fd']2 | %17
 [ec']3 [db] [ca]2 [db]2 | [ca]4 [Bg]4 | [Af]8!8va)!!ped-up! || %20
[K:bass]!ped! [F,,F,]2 [A,CF]2!ped-up!!ped! [F,,F,]2 [A,CF]2!ped-up! | %21
"_simile"!ped! [F,,F,]2 [A,CF]2!ped-up!!ped! [F,,F,]2 [A,CF]2!ped-up! | %22
!ped! [B,,,B,,]2 [F,B,]2!ped-up!!ped! [B,,,B,,]2 [F,B,D]2!ped-up! | %23
!ped! [F,,F,]2 [A,CF]2 [A,CF]2 [A,CF]2!ped-up! | %24
!ped! [C,,C,]2 [G,B,CE]2!ped-up!!ped! [C,,C,]2 [G,B,CE]2!ped-up! | %25
!ped! [F,,F,]2 [A,CF]2!ped-up!!ped! [F,,F,]2 [A,CF]2!ped-up! | %26
!8vb(!!ped! G,,,2!8vb)! [G,=B,DF]2!ped-up!!8vb(!!ped! G,,,2!8vb)! [G,B,DF]2!ped-up! | %27
!ped! [C,,C,]2 [G,CE]2 [G,B,CE]4!ped-up! | %28
!ped! [F,,F,]2 [A,CF]2!ped-up!!ped! [F,,F,]2 [A,CF]2!ped-up! | %29
!ped! [F,,F,]2 [A,CF]2!ped-up!!ped! [F,,F,]2 [A,CF]2!ped-up! | %30
!ped! [B,,,B,,]2 [F,B,]2!ped-up!!ped! [B,,,B,,]2 [F,B,D]2!ped-up! | %31
!ped! [F,,F,]2 [A,CF]2 [A,CF]2 [A,CF]2!ped-up! | %32
!8vb(!!ped! F,,,2!8vb)! [A,CF]2!ped-up!!ped! [D,,D,]2 [^F,CD]2!ped-up! | %33
!8vb(!!ped! G,,,2!8vb)! [G,=B,DF]2!ped-up!!8vb(!!ped! G,,,2!8vb)! [G,B,DF]2!ped-up! | %34
!ped! [C,,C,]2 [A,CF]2!ped-up!!ped! [C,,C,]2 [G,_B,CE]2!ped-up! | %35
!ped! [F,,F,]2 C,2 F,,2 z2!ped-up! |: %36
!ped! [C,,C,]2 [G,B,CE]2!ped-up!!ped! [C,,C,]2 [G,B,CE]2!ped-up! | %37
!ped! [F,,F,]2 [A,CF]2!ped-up!!ped! [F,,F,]2 [A,CF]2!ped-up! | %38
!ped! [C,,C,]2 [G,B,CE]2!ped-up!!ped! [C,,C,]2 [G,B,CE]2!ped-up! | %39
!ped! [F,,F,]2 [A,CF]2 [A,CF]2 [A,CF]2!ped-up! | %40
!8vb(!!ped! F,,,2!8vb)! [A,CF]2!ped-up!!ped! [D,,D,]2 [^F,CD]2!ped-up! | %41
!8vb(!!ped! G,,,2!8vb)! [G,=B,DF]2!ped-up!!8vb(!!ped! G,,,2!8vb)! [G,B,DF]2!ped-up! | %42
!ped! [C,,C,]2 [A,CF]2!ped-up!!ped! [C,,C,]2 [G,B,CE]2!ped-up! | %43
!ped! [F,,F,]2 C,2 F,,2 z2!ped-up! ::[K:C][M:3/4] [C,,C,]2 [A,^CEG]2 [A,CEG]2 | %45
 [D,,D,]2 [A,DF]2 [A,DF]2 | [E,,E,]2 [E,^G,B,D]2 [E,G,B,D]2 | [A,,,A,,]2 [E,A,C]2 [E,A,C]2 | %48
 [F,,F,]2 [A,CF]2 [A,CF]2 | [C,,C,]2 [G,CE]2 [G,CE]2 | [D,,D,]2 [D,^F,A,C]2 [D,F,A,C]2 | %51
!8vb(! G,,,2!8vb)! [G,B,D]2 [G,B,D]2 | [C,,C,]2 [A,^CEG]2 [A,CEG]2 | [D,,D,]2 [A,DF]2 [A,DF]2 | %54
 [E,,E,]2 [E,^G,B,D]2 [E,G,B,D]2 |!8vb(! A,,,2!8vb)! [E,A,C]2 [E,A,C]2 | [F,,F,]2 [A,CF]2 [A,CF]2 | %57
 [C,,C,]2 [G,CE]2 [G,CE]2 | [D,,D,]2 [G,,G,]2 G,,2 |1 %59
"^rit." [C,,C,] z[K:treble] [^CG_B]2 [DFG=B]2 :|2"^rit." [C,,C,]2 [D,,D,]2 !fermata![E,,E,]2 || %61
[K:F][M:4/4]!ped! [F,,F,]2 [A,CF]2!ped-up!!ped! [F,,F,]2 [A,CF]2!ped-up! | %62
"_simile"!ped! [F,,F,]2 [A,CF]2!ped-up!!ped! [F,,F,]2 [A,CF]2!ped-up! | %63
!ped! [B,,,B,,]2 [F,B,]2!ped-up!!ped! [B,,,B,,]2 [F,B,D]2!ped-up! | %64
!ped! [F,,F,]2 [A,CF]2 [A,CF]2 [A,CF]2!ped-up! | %65
!ped! [C,,C,]2 [G,B,CE]2!ped-up!!ped! [C,,C,]2 [G,B,CE]2!ped-up! | %66
!ped! [F,,F,]2 [A,CF]2!ped-up!!ped! [F,,F,]2 [A,CF]2!ped-up! | %67
!8vb(!!ped! G,,,2!8vb)! [G,=B,DF]2!ped-up!!8vb(!!ped! G,,,2!8vb)! [G,B,DF]2!ped-up! | %68
!ped! [C,,C,]2 [G,CE]2 [G,B,CE]4!ped-up! | %69
!ped! [F,,F,]2 [A,CF]2!ped-up!!ped! [F,,F,]2 [A,CF]2!ped-up! | %70
!ped! [F,,F,]2 [A,CF]2!ped-up!!ped! [F,,F,]2 [A,CF]2!ped-up! | %71
!ped! [B,,,B,,]2 [F,B,]2!ped-up!!ped! [B,,,B,,]2 [F,B,D]2!ped-up! | %72
!ped! [F,,F,]2 [A,CF]2 [A,CF]2 [A,CF]2!ped-up! | %73
!8vb(!!ped! F,,,2!8vb)! [A,CF]2!ped-up!!ped! [D,,D,]2 [^F,CD]2!ped-up! | %74
!8vb(!!ped! G,,,2!8vb)! [G,=B,DF]2!ped-up!!8vb(!!ped! G,,,2!8vb)! [G,B,DF]2!ped-up! | %75
!ped! [C,,C,]2 [A,CF]2!ped-up!!ped! [C,,C,]2 [G,_B,CE]2!ped-up! |!ped! [F,,F,]2 C,2 F,,2!ped-up! || %77
[K:Bb][K:treble]!8va(!!ped! [db]2 | [db]8 | [Af]4 [db]4 | [ec']6 [ca]2 | [Af]8 | [fd']4 [ec']4 | %83
 [fd']4 [ge']4 | [fd']8 | [ec']8 | [db]8 | [ca]4 [Bg]4 | [ca]4 [db]4 | [ec']4 [ge']4 | [fd']8 | %91
 [ec']6 [db]2 | [db]8- | [db]4!8va)! z4!ped-up! |: %94
[K:bass] [B,,,B,,]2 [F,B,D]2 [B,,,B,,]2 [F,B,D]2 | [B,,,B,,]2 [F,B,D]2 [F,B,D]2 [F,B,D]2 | %96
 [E,,E,]2 [G,B,E]2 [E,,E,]2 [G,B,E]2 | [B,,,B,,]2 [F,B,D]2 [F,B,D]2 [F,B,D]2 | %98
 [B,,,B,,]2 [F,B,D]2 [B,,,B,,]2 [F,B,D]2 | [B,,,B,,]2 [F,B,D]2 [F,B,D]2 [F,B,D]2 | %100
 [C,,C,]2 [G,B,C=E]2 [G,B,CE]2 [G,B,CE]2 | [F,,F,]2 [F,A,C]2 [F,A,C]2 [F,A,C]2 | %102
 [B,,,B,,]2 [F,B,D]2 [B,,,B,,]2 [F,B,D]2 | [B,,,B,,]2 [F,B,D]2 [F,B,D]2 [F,B,D]2 | %104
 [E,,E,]2 [G,B,E]2 [E,,E,]2 [G,B,E]2 | [B,,,B,,]2 [F,B,D]2 [F,B,D]2 [F,B,D]2 | %106
 [E,,E,]2 [G,B,E]2 [E,,E,]2 [G,B,E]2 | [B,,,B,,]2 [F,B,D]2 [F,B,D]2 [F,B,D]2 | %108
"^rit." [F,,F,]2 [F,A,CE]2 [F,,F,]2 [F,A,C]2 | [B,,B,]2 [F,,F,]2 [B,,,B,,]2 z2 :| %110
[K:treble] [db]4 [Bg]4 | [ca]4 [Af]4 | [db]4 [Bg]4 | [ca]4 [Af]4 | [db]4 [ca]2 [Bg]2 | %115
 [Af]6 [Ge]2 | [Fd]4 [Ec]4 | [DB]8 || [_G,,_G,]8 | [B,,B,]2 [B,,,B,,]2 z4 |] %120
V:3
!8va(! x8 | x8 | x8 | x8 | x8 | x8 | x8 | x8 | x8 | x8 | x8 | x8 | x8 | x8 | x8 | x8 | x8 | x8 | %18
 x8 | x8!8va)! || x8 | x8 | x8 | x8 | x8 | x8 | x8 | x8 | x8 | x8 | x8 | x8 | x8 | x8 | x8 | x8 |: %36
 x8 | x8 | x8 | x8 | x8 | x8 | x8 | x8 ::[K:C][M:3/4] x6 | x6 | x6 | x6 | x6 | x6 | x6 | %51
 z [FB] [FA]2 [FG]2 | x6 | x6 | x6 | x6 | x6 | x6 | x6 |1 x6 :|2 x6 ||[K:F][M:4/4] x8 | x8 | x8 | %64
 x8 | x8 | x8 | x8 | x8 | x8 | x8 | x8 | x8 | x8 | x8 | x8 | x6 ||[K:Bb]!8va(! x2 | x8 | x8 | x8 | %81
 x8 | x8 | x8 | x8 | x8 | x8 | x8 | x8 | x8 | x8 | x8 | x8 | x4!8va)! x4 |: x8 | x8 | x8 | x8 | %98
 x8 | x8 | x8 | x8 | x8 | x8 | x8 | x8 | x8 | x8 | x8 | x8 :|!8va(! x8 | x8 | x8 | x8 | x8 | x8 | %116
 x8 | x8!8va)! || x8 | x8 |] %120

